src/images/techStack/next.svg

<svg width="500" height="500" fill="none" xmlns="http://www.w3.org/2000/svg"><path d="M157.588 199.197h66.022v5.257h-59.97v39.578h56.392v5.257H163.64v43.453h60.654v5.264h-66.706v-98.809Zm71.936 0h7.012l31.087 43.453 31.778-43.453L342.605 144l-70.996 103.216 36.614 50.79H300.9l-33.277-46.237-33.422 46.223h-7.15l36.855-50.79-34.382-48.005Zm81.282 5.257v-5.257h75.231v5.257h-34.658v93.545h-6.052v-93.545h-34.541.02ZM75 199.197h7.6l104.314 156.431-43.108-57.622-62.478-91.341-.276 91.341H75v-98.809Zm310.429 91.949a2.203 2.203 0 0 1-1.612-3.749 2.213 2.213 0 0 1 1.13-.614 2.212 2.212 0 0 1 1.279.121 2.206 2.206 0 0 1 1.366 2.045 2.137 2.137 0 0 1-.615 1.558 2.146 2.146 0 0 1-1.548.639Zm5.949-5.789h3.239a2.957 2.957 0 0 0 3.206 2.943c2.107 0 3.302-1.271 3.302-3.648v-15.06h3.295v15.081c0 4.283-2.473 6.749-6.563 6.749-3.841 0-6.479-2.39-6.479-6.058v-.007Zm17.353-.187h3.268c.283 2.017 2.252 3.302 5.091 3.302 2.653 0 4.594-1.381 4.594-3.26 0-1.624-1.237-2.598-4.048-3.261l-2.764-.691c-3.84-.905-5.595-2.763-5.595-5.899 0-3.793 3.088-6.322 7.723-6.322 4.318 0 7.468 2.529 7.661 6.114h-3.212c-.311-1.962-2.017-3.191-4.49-3.191-2.605 0-4.339 1.257-4.339 3.177 0 1.52 1.12 2.398 3.883 3.047l2.342.573c4.359 1.016 6.155 2.764 6.155 5.997 0 4.076-3.157 6.632-8.186 6.632-4.712 0-7.876-2.439-8.111-6.252l.028.034Z" fill="#000"/></svg>

<svg width="500" height="500" viewBox="0 0 500 500" fill="none" xmlns="http://www.w3.org/2000/svg">
<rect width="500" height="500" fill="white"/>
<path d="M157.588 199.197H223.61V204.454H163.64V244.032H220.032V249.289H163.64V292.742H224.294V298.006H157.588V199.197ZM229.524 199.197H236.536L267.623 242.65L299.401 199.197L342.605 144L271.609 247.216L308.223 298.006H300.9L267.623 251.769L234.201 297.992H227.051L263.906 247.202L229.524 199.197ZM310.806 204.454V199.197H386.037V204.454H351.379V297.999H345.327V204.454H310.786H310.806ZM75 199.197H82.5991L186.914 355.628L143.806 298.006L81.328 206.665L81.0516 298.006H75V199.197ZM385.429 291.146C384.992 291.154 384.561 291.032 384.193 290.794C383.825 290.557 383.536 290.215 383.364 289.813C383.191 289.411 383.141 288.966 383.222 288.536C383.303 288.105 383.51 287.709 383.817 287.397C384.125 287.085 384.518 286.871 384.947 286.783C385.376 286.696 385.821 286.738 386.226 286.904C386.631 287.071 386.977 287.355 387.221 287.719C387.464 288.083 387.593 288.511 387.592 288.949C387.599 289.237 387.549 289.523 387.443 289.79C387.337 290.058 387.179 290.302 386.977 290.507C386.775 290.712 386.534 290.874 386.268 290.984C386.002 291.094 385.717 291.149 385.429 291.146V291.146ZM391.378 285.357H394.617C394.618 285.766 394.703 286.17 394.868 286.544C395.033 286.919 395.273 287.255 395.575 287.531C395.876 287.808 396.231 288.019 396.618 288.151C397.005 288.284 397.415 288.334 397.823 288.3C399.93 288.3 401.125 287.029 401.125 284.652V269.592H404.42V284.673C404.42 288.956 401.947 291.422 397.857 291.422C394.016 291.422 391.378 289.032 391.378 285.364V285.357ZM408.731 285.17H411.999C412.282 287.187 414.251 288.472 417.09 288.472C419.743 288.472 421.684 287.091 421.684 285.212C421.684 283.588 420.447 282.614 417.636 281.951L414.872 281.26C411.032 280.355 409.277 278.497 409.277 275.361C409.277 271.568 412.365 269.039 417 269.039C421.318 269.039 424.468 271.568 424.661 275.153H421.449C421.138 273.191 419.432 271.962 416.959 271.962C414.354 271.962 412.62 273.219 412.62 275.139C412.62 276.659 413.74 277.537 416.503 278.186L418.845 278.759C423.204 279.775 425 281.523 425 284.756C425 288.832 421.843 291.388 416.814 291.388C412.102 291.388 408.938 288.949 408.703 285.136L408.731 285.17Z" fill="black"/>
</svg>
